X: 010170
T: Anderson's
S: J.Kelly - P.O'Brien
Z: B.Black
R: reel
M: 4/4
L: 1/8
K: Ador
aged BG G2 |BGdG eGdG |aged BG G2 | BddB ABce |
aged BG G2 |BGdG eGdG |aged BG G2 | BddB A2 ae ||
eaaf g3 d |(3efg af gfed|eaaf g2 ba |gede BAAa |
eaaf g3 d |(3efg af gfga|bgaf gedg |eBdB A4 ||
